X:658
T:Polska # 658
S:efter Anders Gustaf Andersson
B:Sörmlands musikarkiv - Olof Anderssons uppteckningar 1936, nr 658
O:Mörkö, Södermanland
N: Text: En gång så skjutsa jag en tiggarflicka, från Stockholm till Telje sand. och hela natten så kände jag patten, etc.
N: Resten fick Andersson ej höra då han ansågs för ung.
R:Slängpolska
Z:Nils L
M:3/4
L:1/16
Q:120
K:D
A3d f3e d3c| B3c d4F4 | G3F E3F G3A | B2cB A8 :| A3c e4 e3c |
A3A d4 f3a | a2fa g2e2 c2d2 | efef d2f2 a4| a2fa g2e2 c2d2 | efef d8 :|]

